X:56
T:Galope de Jules Verret
M:4/4
L:1/8
K:D
A2d2 ffdf | abaf gage | A2c2 eece | b2a2 aba2 |
A2d2 ffdf | abaf gage | A2c2 eece |1 b2a2 d3A :|2 b2a2 dAdf |:
e2d2 AAFA | DFAd f2d2 | BBGB EGBd | 
g2e2 cAAA | A2a2 ^g2a2 |1 b2a2 f2dc | dAdf :|2 b2c2 d3A |]

